X:1
T:Kyrie, 77.77
T:Kyrie, 77.77
T:Arranged from Wolfgang A. Mozart (1756-1791)
T:Public Domain Courtesy of the Cyber Hymnal™
C:Arranged from Wolfgang A. Mozart (1756-1791)
Z:Public Domain
Z:Courtesy of the Cyber Hymnal™
%%score ( 1 2 ) ( 3 4 )
L:1/8
Q:1/4=130
M:3/4
K:G
V:1 treble 
V:2 treble 
V:3 bass 
V:4 bass 
V:1
 [DG]4 [DG]2 | [DF]4 D2 | [Dc]4 [Fc]2 | [GB]6 | [Gd]4 [GB]2 | (d2 c2) [DA]2 | [DG]4 [GB]2 x2 | %7
 [FA]6 | G4 G2 | (F3 E) D2 | [Dc]4 [Fc]2 | [GB]6 | d4 [=FB]2 | (A2 c2) [Ee]2 | [DG]4 [CF]2 | %15
 [B,G]6 |] %16
V:2
 x6 | x4 D2 | x6 | x6 | x6 | E4 x2 | x8 | x6 | G4 G2 | F3 E D2 | x6 | x6 | (D2 G2) x2 | E4 x2 | %14
 x6 | x6 |] %16
V:3
 [G,B,]4 [G,B,]2 | [D,A,]4 [D,F,]2 | [D,F,]2 [F,A,]2 [D,D]2 | [G,D]6 | ([B,D]2 [G,B,]2) [G,B,]2 | %5
 A,4 [F,C]2 | B,4 B,2 [G,D]2 | [D,D]6 | ([G,B,]2 [B,D]2) [G,B,]2 | ([A,C]3 [G,B,]) ([F,A,][E,G,]) | %10
 ([D,F,]2 [F,A,]2) [D,D]2 | [G,D]6 | [G,B,]4 [^G,D]2 | [A,C]4 [C,A,]2 | [D,B,]4 [D,A,]2 | %15
 [G,,G,]6 |] %16
V:4
 x6 | x6 | x6 | x6 | x6 | A,4 x2 | G,2 x6 | x6 | x6 | x6 | x6 | x6 | x6 | x6 | x6 | x6 |] %16

